img/logo.svg

<svg width="100" height="20" viewBox="0 0 100 20" fill="none" xmlns="http://www.w3.org/2000/svg">
<path d="M6.36 5.08C7.36 5.08 8.26667 5.31333 9.08 5.78C9.90667 6.23333 10.5533 6.88 11.02 7.72C11.4867 8.54667 11.72 9.51333 11.72 10.62C11.72 11.7267 11.4867 12.7 11.02 13.54C10.5533 14.3667 9.90667 15.0133 9.08 15.48C8.26667 15.9333 7.36 16.16 6.36 16.16C4.98667 16.16 3.90667 15.7267 3.12 14.86V19.88H0V5.24H2.98V6.48C3.75333 5.54667 4.88 5.08 6.36 5.08ZM5.82 13.6C6.62 13.6 7.27333 13.3333 7.78 12.8C8.3 12.2533 8.56 11.5267 8.56 10.62C8.56 9.71333 8.3 8.99333 7.78 8.46C7.27333 7.91333 6.62 7.64 5.82 7.64C5.02 7.64 4.36 7.91333 3.84 8.46C3.33333 8.99333 3.08 9.71333 3.08 10.62C3.08 11.5267 3.33333 12.2533 3.84 12.8C4.36 13.3333 5.02 13.6 5.82 13.6Z" fill="#262626"/>
<path d="M16.7886 6.66C17.1619 6.14 17.6619 5.74667 18.2886 5.48C18.9286 5.21333 19.6619 5.08 20.4886 5.08V7.96C20.1419 7.93333 19.9086 7.92 19.7886 7.92C18.8953 7.92 18.1953 8.17333 17.6886 8.68C17.1819 9.17333 16.9286 9.92 16.9286 10.92V16H13.8086V5.24H16.7886V6.66Z" fill="#262626"/>
<path d="M32.7861 10.66C32.7861 10.7 32.7661 10.98 32.7261 11.5H24.5861C24.7328 12.1667 25.0794 12.6933 25.6261 13.08C26.1728 13.4667 26.8528 13.66 27.6661 13.66C28.2261 13.66 28.7194 13.58 29.1461 13.42C29.5861 13.2467 29.9928 12.98 30.3661 12.62L32.0261 14.42C31.0128 15.58 29.5328 16.16 27.5861 16.16C26.3728 16.16 25.2994 15.9267 24.3661 15.46C23.4328 14.98 22.7128 14.32 22.2061 13.48C21.6994 12.64 21.4461 11.6867 21.4461 10.62C21.4461 9.56667 21.6928 8.62 22.1861 7.78C22.6928 6.92667 23.3794 6.26667 24.2461 5.8C25.1261 5.32 26.1061 5.08 27.1861 5.08C28.2394 5.08 29.1928 5.30667 30.0461 5.76C30.8994 6.21333 31.5661 6.86667 32.0461 7.72C32.5394 8.56 32.7861 9.54 32.7861 10.66ZM27.2061 7.44C26.4994 7.44 25.9061 7.64 25.4261 8.04C24.9461 8.44 24.6528 8.98667 24.5461 9.68H29.8461C29.7394 9 29.4461 8.46 28.9661 8.06C28.4861 7.64667 27.8994 7.44 27.2061 7.44Z" fill="#262626"/>
<path d="M38.4833 16.16C37.59 16.16 36.7166 16.0533 35.8633 15.84C35.0099 15.6133 34.33 15.3333 33.8233 15L34.8633 12.76C35.3433 13.0667 35.9233 13.32 36.6033 13.52C37.2833 13.7067 37.95 13.8 38.6033 13.8C39.9233 13.8 40.5833 13.4733 40.5833 12.82C40.5833 12.5133 40.4033 12.2933 40.0433 12.16C39.6833 12.0267 39.1299 11.9133 38.3833 11.82C37.5033 11.6867 36.7766 11.5333 36.2033 11.36C35.6299 11.1867 35.1299 10.88 34.7033 10.44C34.2899 10 34.0833 9.37333 34.0833 8.56C34.0833 7.88 34.2766 7.28 34.6633 6.76C35.0633 6.22667 35.6366 5.81333 36.3833 5.52C37.1433 5.22667 38.0366 5.08 39.0633 5.08C39.8233 5.08 40.5766 5.16667 41.3233 5.34C42.0833 5.5 42.7099 5.72667 43.2033 6.02L42.1633 8.24C41.2166 7.70667 40.1833 7.44 39.0633 7.44C38.3966 7.44 37.8966 7.53333 37.5633 7.72C37.2299 7.90667 37.0633 8.14667 37.0633 8.44C37.0633 8.77333 37.2433 9.00667 37.6033 9.14C37.9633 9.27333 38.5366 9.4 39.3233 9.52C40.2033 9.66667 40.9233 9.82667 41.4833 10C42.0433 10.16 42.5299 10.46 42.9433 10.9C43.3566 11.34 43.5633 11.9533 43.5633 12.74C43.5633 13.4067 43.3633 14 42.9633 14.52C42.5633 15.04 41.9766 15.4467 41.2033 15.74C40.4433 16.02 39.5366 16.16 38.4833 16.16Z" fill="#262626"/>
<path d="M49.1083 16.16C48.215 16.16 47.3416 16.0533 46.4883 15.84C45.6349 15.6133 44.955 15.3333 44.4483 15L45.4883 12.76C45.9683 13.0667 46.5483 13.32 47.2283 13.52C47.9083 13.7067 48.575 13.8 49.2283 13.8C50.5483 13.8 51.2083 13.4733 51.2083 12.82C51.2083 12.5133 51.0283 12.2933 50.6683 12.16C50.3083 12.0267 49.7549 11.9133 49.0083 11.82C48.1283 11.6867 47.4016 11.5333 46.8283 11.36C46.2549 11.1867 45.7549 10.88 45.3283 10.44C44.9149 10 44.7083 9.37333 44.7083 8.56C44.7083 7.88 44.9016 7.28 45.2883 6.76C45.6883 6.22667 46.2616 5.81333 47.0083 5.52C47.7683 5.22667 48.6616 5.08 49.6883 5.08C50.4483 5.08 51.2016 5.16667 51.9483 5.34C52.7083 5.5 53.3349 5.72667 53.8283 6.02L52.7883 8.24C51.8416 7.70667 50.8083 7.44 49.6883 7.44C49.0216 7.44 48.5216 7.53333 48.1883 7.72C47.8549 7.90667 47.6883 8.14667 47.6883 8.44C47.6883 8.77333 47.8683 9.00667 48.2283 9.14C48.5883 9.27333 49.1616 9.4 49.9483 9.52C50.8283 9.66667 51.5483 9.82667 52.1083 10C52.6683 10.16 53.1549 10.46 53.5683 10.9C53.9816 11.34 54.1883 11.9533 54.1883 12.74C54.1883 13.4067 53.9883 14 53.5883 14.52C53.1883 15.04 52.6016 15.4467 51.8283 15.74C51.0683 16.02 50.1616 16.16 49.1083 16.16Z" fill="#262626"/>
<path d="M59.5333 5.48H62.2933V7.88H59.6133V16H56.4933V7.88H54.8333V5.48H56.4933V5C56.4933 3.77333 56.8533 2.8 57.5733 2.08C58.3066 1.36 59.3333 1 60.6533 1C61.1199 1 61.5599 1.05333 61.9733 1.16C62.3999 1.25333 62.7533 1.39333 63.0333 1.58L62.2133 3.84C61.8533 3.58667 61.4333 3.46 60.9533 3.46C60.0066 3.46 59.5333 3.98 59.5333 5.02V5.48Z" fill="#262626"/>
<path d="M74.2509 10.66C74.2509 10.7 74.2309 10.98 74.1909 11.5H66.0509C66.1976 12.1667 66.5443 12.6933 67.0909 13.08C67.6376 13.4667 68.3176 13.66 69.1309 13.66C69.6909 13.66 70.1843 13.58 70.6109 13.42C71.0509 13.2467 71.4576 12.98 71.8309 12.62L73.4909 14.42C72.4776 15.58 70.9976 16.16 69.0509 16.16C67.8376 16.16 66.7643 15.9267 65.8309 15.46C64.8976 14.98 64.1776 14.32 63.6709 13.48C63.1643 12.64 62.9109 11.6867 62.9109 10.62C62.9109 9.56667 63.1576 8.62 63.6509 7.78C64.1576 6.92667 64.8443 6.26667 65.7109 5.8C66.5909 5.32 67.5709 5.08 68.6509 5.08C69.7043 5.08 70.6576 5.30667 71.5109 5.76C72.3643 6.21333 73.0309 6.86667 73.5109 7.72C74.0043 8.56 74.2509 9.54 74.2509 10.66ZM68.6709 7.44C67.9643 7.44 67.3709 7.64 66.8909 8.04C66.4109 8.44 66.1176 8.98667 66.0109 9.68H71.3109C71.2043 9 70.9109 8.46 70.4309 8.06C69.9509 7.64667 69.3643 7.44 68.6709 7.44Z" fill="#262626"/>
<path d="M86.8681 10.66C86.8681 10.7 86.8481 10.98 86.8081 11.5H78.6681C78.8148 12.1667 79.1615 12.6933 79.7081 13.08C80.2548 13.4667 80.9348 13.66 81.7481 13.66C82.3081 13.66 82.8015 13.58 83.2281 13.42C83.6681 13.2467 84.0748 12.98 84.4481 12.62L86.1081 14.42C85.0948 15.58 83.6148 16.16 81.6681 16.16C80.4548 16.16 79.3815 15.9267 78.4481 15.46C77.5148 14.98 76.7948 14.32 76.2881 13.48C75.7815 12.64 75.5281 11.6867 75.5281 10.62C75.5281 9.56667 75.7748 8.62 76.2681 7.78C76.7748 6.92667 77.4615 6.26667 78.3281 5.8C79.2081 5.32 80.1881 5.08 81.2681 5.08C82.3215 5.08 83.2748 5.30667 84.1281 5.76C84.9815 6.21333 85.6481 6.86667 86.1281 7.72C86.6215 8.56 86.8681 9.54 86.8681 10.66ZM81.2881 7.44C80.5815 7.44 79.9881 7.64 79.5081 8.04C79.0281 8.44 78.7348 8.98667 78.6281 9.68H83.9281C83.8215 9 83.5281 8.46 83.0481 8.06C82.5681 7.64667 81.9815 7.44 81.2881 7.44Z" fill="#262626"/>
<path d="M99.9053 1.16V16H96.9253V14.76C96.152 15.6933 95.032 16.16 93.5653 16.16C92.552 16.16 91.632 15.9333 90.8053 15.48C89.992 15.0267 89.352 14.38 88.8853 13.54C88.4186 12.7 88.1853 11.7267 88.1853 10.62C88.1853 9.51333 88.4186 8.54 88.8853 7.7C89.352 6.86 89.992 6.21333 90.8053 5.76C91.632 5.30667 92.552 5.08 93.5653 5.08C94.9386 5.08 96.012 5.51333 96.7853 6.38V1.16H99.9053ZM94.1053 13.6C94.892 13.6 95.5453 13.3333 96.0653 12.8C96.5853 12.2533 96.8453 11.5267 96.8453 10.62C96.8453 9.71333 96.5853 8.99333 96.0653 8.46C95.5453 7.91333 94.892 7.64 94.1053 7.64C93.3053 7.64 92.6453 7.91333 92.1253 8.46C91.6053 8.99333 91.3453 9.71333 91.3453 10.62C91.3453 11.5267 91.6053 12.2533 92.1253 12.8C92.6453 13.3333 93.3053 13.6 94.1053 13.6Z" fill="#262626"/>
</svg>

<svg width="100" height="20" fill="none" xmlns="http://www.w3.org/2000/svg"><path d="M6.36 5.08c1 0 1.907.233 2.72.7a4.851 4.851 0 0 1 1.94 1.94c.467.827.7 1.793.7 2.9s-.233 2.08-.7 2.92a5.024 5.024 0 0 1-1.94 1.94c-.813.453-1.72.68-2.72.68-1.373 0-2.453-.433-3.24-1.3v5.02H0V5.24h2.98v1.24c.773-.933 1.9-1.4 3.38-1.4Zm-.54 8.52c.8 0 1.453-.267 1.96-.8.52-.547.78-1.273.78-2.18 0-.907-.26-1.627-.78-2.16-.507-.547-1.16-.82-1.96-.82s-1.46.273-1.98.82c-.507.533-.76 1.253-.76 2.16 0 .907.253 1.633.76 2.18.52.533 1.18.8 1.98.8ZM16.789 6.66c.373-.52.873-.913 1.5-1.18.64-.267 1.373-.4 2.2-.4v2.88c-.347-.027-.58-.04-.7-.04-.894 0-1.594.253-2.1.76-.507.493-.76 1.24-.76 2.24V16h-3.12V5.24h2.98v1.42ZM32.786 10.66c0 .04-.02.32-.06.84h-8.14a2.535 2.535 0 0 0 1.04 1.58c.547.387 1.227.58 2.04.58.56 0 1.053-.08 1.48-.24.44-.173.847-.44 1.22-.8l1.66 1.8c-1.013 1.16-2.493 1.74-4.44 1.74-1.213 0-2.287-.233-3.22-.7-.933-.48-1.653-1.14-2.16-1.98-.507-.84-.76-1.793-.76-2.86 0-1.053.247-2 .74-2.84a5.25 5.25 0 0 1 2.06-1.98c.88-.48 1.86-.72 2.94-.72 1.053 0 2.007.227 2.86.68a4.881 4.881 0 0 1 2 1.96c.493.84.74 1.82.74 2.94Zm-5.58-3.22c-.707 0-1.3.2-1.78.6-.48.4-.773.947-.88 1.64h5.3c-.107-.68-.4-1.22-.88-1.62-.48-.413-1.067-.62-1.76-.62ZM38.483 16.16c-.893 0-1.766-.107-2.62-.32-.853-.227-1.533-.507-2.04-.84l1.04-2.24c.48.307 1.06.56 1.74.76.68.187 1.347.28 2 .28 1.32 0 1.98-.327 1.98-.98 0-.307-.18-.527-.54-.66-.36-.133-.913-.247-1.66-.34-.88-.133-1.606-.287-2.18-.46a3.451 3.451 0 0 1-1.5-.92c-.413-.44-.62-1.067-.62-1.88 0-.68.194-1.28.58-1.8.4-.533.974-.947 1.72-1.24.76-.293 1.654-.44 2.68-.44.76 0 1.514.087 2.26.26.76.16 1.387.387 1.88.68l-1.04 2.22a6.209 6.209 0 0 0-3.1-.8c-.666 0-1.166.093-1.5.28-.333.187-.5.427-.5.72 0 .333.18.567.54.7.36.133.934.26 1.72.38.88.147 1.6.307 2.16.48.56.16 1.047.46 1.46.9.414.44.62 1.053.62 1.84 0 .667-.2 1.26-.6 1.78-.4.52-.986.927-1.76 1.22-.76.28-1.666.42-2.72.42ZM49.108 16.16c-.893 0-1.766-.107-2.62-.32-.853-.227-1.533-.507-2.04-.84l1.04-2.24c.48.307 1.06.56 1.74.76.68.187 1.347.28 2 .28 1.32 0 1.98-.327 1.98-.98 0-.307-.18-.527-.54-.66-.36-.133-.913-.247-1.66-.34-.88-.133-1.606-.287-2.18-.46a3.451 3.451 0 0 1-1.5-.92c-.413-.44-.62-1.067-.62-1.88 0-.68.194-1.28.58-1.8.4-.533.974-.947 1.72-1.24.76-.293 1.654-.44 2.68-.44.76 0 1.514.087 2.26.26.76.16 1.387.387 1.88.68l-1.04 2.22a6.209 6.209 0 0 0-3.1-.8c-.666 0-1.166.093-1.5.28-.333.187-.5.427-.5.72 0 .333.18.567.54.7.36.133.934.26 1.72.38.88.147 1.6.307 2.16.48.56.16 1.047.46 1.46.9.414.44.62 1.053.62 1.84 0 .667-.2 1.26-.6 1.78-.4.52-.986.927-1.76 1.22-.76.28-1.666.42-2.72.42ZM59.533 5.48h2.76v2.4h-2.68V16h-3.12V7.88h-1.66v-2.4h1.66V5c0-1.227.36-2.2 1.08-2.92.734-.72 1.76-1.08 3.08-1.08.467 0 .907.053 1.32.16.427.093.78.233 1.06.42l-.82 2.26c-.36-.253-.78-.38-1.26-.38-.946 0-1.42.52-1.42 1.56v.46ZM74.25 10.66c0 .04-.02.32-.06.84h-8.14a2.536 2.536 0 0 0 1.04 1.58c.548.387 1.228.58 2.04.58.56 0 1.054-.08 1.48-.24.44-.173.848-.44 1.22-.8l1.66 1.8c-1.012 1.16-2.492 1.74-4.44 1.74-1.212 0-2.286-.233-3.22-.7-.932-.48-1.652-1.14-2.16-1.98-.506-.84-.76-1.793-.76-2.86 0-1.053.248-2 .74-2.84a5.251 5.251 0 0 1 2.06-1.98c.88-.48 1.86-.72 2.94-.72 1.054 0 2.008.227 2.86.68a4.88 4.88 0 0 1 2 1.96c.494.84.74 1.82.74 2.94Zm-5.58-3.22c-.706 0-1.3.2-1.78.6-.48.4-.772.947-.88 1.64h5.3c-.106-.68-.4-1.22-.88-1.62-.48-.413-1.066-.62-1.76-.62ZM86.868 10.66c0 .04-.02.32-.06.84h-8.14a2.536 2.536 0 0 0 1.04 1.58c.547.387 1.227.58 2.04.58.56 0 1.053-.08 1.48-.24.44-.173.847-.44 1.22-.8l1.66 1.8c-1.013 1.16-2.493 1.74-4.44 1.74-1.213 0-2.287-.233-3.22-.7-.933-.48-1.653-1.14-2.16-1.98-.507-.84-.76-1.793-.76-2.86 0-1.053.247-2 .74-2.84a5.251 5.251 0 0 1 2.06-1.98c.88-.48 1.86-.72 2.94-.72 1.053 0 2.007.227 2.86.68a4.88 4.88 0 0 1 2 1.96c.493.84.74 1.82.74 2.94Zm-5.58-3.22c-.706 0-1.3.2-1.78.6-.48.4-.773.947-.88 1.64h5.3c-.106-.68-.4-1.22-.88-1.62-.48-.413-1.067-.62-1.76-.62ZM99.905 1.16V16h-2.98v-1.24c-.773.933-1.893 1.4-3.36 1.4-1.013 0-1.933-.227-2.76-.68a4.888 4.888 0 0 1-1.92-1.94c-.466-.84-.7-1.813-.7-2.92s.234-2.08.7-2.92a4.888 4.888 0 0 1 1.92-1.94c.827-.453 1.747-.68 2.76-.68 1.374 0 2.447.433 3.22 1.3V1.16h3.12Zm-5.8 12.44c.787 0 1.44-.267 1.96-.8.52-.547.78-1.273.78-2.18 0-.907-.26-1.627-.78-2.16-.52-.547-1.173-.82-1.96-.82-.8 0-1.46.273-1.98.82-.52.533-.78 1.253-.78 2.16 0 .907.26 1.633.78 2.18.52.533 1.18.8 1.98.8Z" fill="#262626"/></svg>
